X:1
T:Fantasia and Fugue in A minor
T:Fantasia and Fugue in A minor
T:BWV 944
T:Johann Sebastian Bach
C:Johann Sebastian Bach
%%score 1 2 3 4
L:1/8
Q:1/4=60
M:3/4
K:C
V:1 treble nm="ピアノ" snm="Pno."
V:2 treble nm="ピアノ" snm="Pno."
V:3 bass nm="ピアノ" snm="Pno."
V:4 bass nm="ピアノ" snm="Pno."
V:1
!mf!"^dolce" A/c/B/A/ e/B/c/d/ E/d/c/B/ | c/!<(!d/c/B/ A/!mp!!<(!e/f/g/ a/!>(!g/f/e/!<)!!<)!!>)! | %2
 f/e/d/e/!<(! f/e/d/c/ B/d/c/B/!<)! |!p!!<(! e/d/c/d/ e/d/c/B/ A/c/B/A/!<)! | %4
!p! d/c/B/c/!<(! d/c/B/A/ ^G/B/A/G/!<)! | (A/!mp!!>(!E/A/c/ e/)!>(!(A/c/e/!p! a/)g/a/^f/!>)!!>)! | %6
!mp! g^f/g/ e3 ^d | e2 z!pp! b gb |!p! ac' ^fc' dc' | gb eb cb | ^fa ^da Ba | g2 z2 g2- | %12
 g/e/f/g/ !>!Ag ^cg | f2 z2 f2- | f/d/e/f/ !>!Gf Be |!<(! e/f/e/d/ c/B/A/G/ ^F/!>(!A/B/c/!<)!!>)! | %16
 d/!p!!<(!e/d/c/ B/A/^G/^F/!mp! E/!>(!F/G/A/!<)!!>)! | c2 B3 A | z4 z!p! c' | c'2 z2 z b | %20
 b2 z2 z a | a2 z f ed | c4 z c | B4 z!pp! _B | A4 d2- | %25
 d/!mp!!>(!(E/^G/)B/ e/!>(!(B/e/^g/!p! b/)!<(!f/e/d/!>)!!>)!!<)! | !>!c2 c2 z2 | z2 c2 z2 | %28
 z2 c2 z2 | z/!mp!!<(! c/B/A/!<(! f/e/d/c/ B/d/c/B/!<)!!<)! |!p! e2 z2 z/!>(! d/c/B/!>)! | %31
 c2 z/!mp!!<(! c/B/A/ ^G2!<)! | A2 z4 | z6 | z6 | z6 | z6 | z6 | z6 | z6 | z6 | z6 | z6 | z6 | z6 | %45
 z6 | z6 | z6 | z6 | z6 | z6 | z6 | z6 |] %53
V:2
 z6 | z6 | z6 | z6 | z6 | z6 |!mf! E/G/^F/E/ B/F/G/A/ B,/A/G/F/ | %7
 G/A/G/^F/ E/!p!!>(!B/c/d/!<(! e/d/c/B/!>)!!<)! | c/B/A/B/!mp!!<(! c/B/A/G/ ^F/A/G/F/!<)! | %9
!p!!<(! B/A/G/A/ B/A/G/^F/ E/G/F/E/!<)! |!p!!<(! A/G/^F/G/ A/G/F/E/ ^D/F/E/D/!<)! | %11
 E/!mp!!>(!(B,/E/)G/ B/!>(!(E/G/)B/!p! e/d/e/B/!>)!!>)! | ^c2 z/!p!!<(! d/c/B/ A/G/F/E/!<)! | %13
 D/!mp!(A,/!>(!D/F/ A/)!>(!(D/F/)A/!p! d/c/d/A/!>)!!>)! | B2 z/!<(! c/B/A/ G/F/E/D/!<)! | %15
 C2 z2 z/!mp!!<(! E/D/C/!<)! | B,2 z2 z/!mp!!<(! D/C/B,/!<)! | A,A- AA ^G2 | E2 z!p! e ce | %19
 df Bf Gf |!p! ce Ae Fe |!pp! Bd ^Gd Ed | A2 A2 z A- | A2 G2 z!pp! G- | G2 F4 |!p! B,2 z2!pp! E2- | %26
 E/!mp!!<(!B/A/^G/ A2 z2!<)! | z/!<(! B/A/^G/ A2 z2!<)! | z/!<(! B/A/^G/ A2 z2!<)! | z6 | %30
 z/!mp!!<(! ^G/^F/E/!>(! A/B/c/d/ E2-!<)!!>)! | E2 z2 z/!<(! F/E/D/!<)! | %32
 C2- C/!p!!>(!D/E/F/ z2!>)! | z6 | z2 z/!mp!!<(! E/F/G/ A/G/F/E/!<)! | %35
!p!!<(! F/E/D/E/ F/E/D/C/ B,/D/C/B,/!<)! |!p!!<(! E/D/C/D/ E/D/C/B,/ A,/C/B,/A,/!<)! | %37
!p!!<(! D/C/B,/C/ D/C/B,/ z/ z2!<)! | z2 E/!p!(A,/C/)E/ A/!pp!G/A/E/ | %39
 ^F2 z/!mp!!<(! G/F/E/ D/C/B,/A,/!<)! | z4 G/!pp!^F/G/^D/ | E2 z/!p!!<(! ^F/E/D/ z2!<)! | %42
 z3/2!p! E/ ^D/E/D/E/ z/ C/B,/ z/ | G/^D/E/^F/ D3 D | E2 z/ A/G/^F/ G/B/A/G/ | %45
 A/B/c/B/ A/G/^F/E/ D/c/B/A/ | G/A/B/A/ G/^F/E/D/ C/B/A/G/ | ^F/G/A/G/ F/E/_E/^C/ B,/A/G/F/ | %48
 G2 z/!p! e/B/G/ z/ G/A/B/ | c/!mp!!>(!(E/A/)c/ e/!p!!>(!(A/c/e/) a/g/^f/e/!>)!!>)! | %50
!<(! ^d/e/^f/e/ d/^c/B/A/ G/^F/E/^D/!<)! |!p!!<(! E/^F/G/F/ E/D/C/B,/ z2!<)! | z6 |] %53
V:3
 z6 | z6 | z6 | z6 | z6 | z6 | z6 | z6 | z6 | z6 | z6 | z6 | z6 | z6 | z6 | z6 | z6 | %17
!mf! A,/C/B,/A,/ E/B,/C/D/ E,/D/C/B,/ | C/D/C/B,/ A,/!mp!!>(!E/F/G/!<(! A/G/F/E/!>)!!<)! | %19
 F/E/D/E/!<(! F/E/D/C/ B,/D/C/B,/!<)! |!p!!<(! E/D/C/D/ E/D/C/B,/ A,/C/B,/A,/!<)! | %21
!p!!<(! D/C/B,/C/ D/C/B,/A,/ ^G,/B,/A,/G,/!<)! | %22
!mp! A,/!>(!(E,/A,/C/ E/)!>(!(A,/C/E/!p! A/)G/A/^F/!>)!!>)! | %23
 G/!p!!>(!(D,/G,/B,/ D/)!>(!(G,/B,/D/ G/)!p!F/G/E/!>)!!>)! | %24
 F/!mp!!>(!(F,/A,/C/!p! F/)!<(!E/D/C/ B,/C/B,/A,/!>)!!<)! | ^G,2 z2!pp! G,2 | %26
 A,2- A,/!mp!!>(!^G,/A,/B,/ C/D/E/F/!>)! | F,2- F,/!mp!!>(!E,/F,/G,/ A,/B,/C/D/!>)! | %28
 C,2- C,/!mp!!>(!B,/A,/B,/ C/D/E/F/!>)! |!pp! D,,D, A,,D, F,,D, | %30
 D,,D, C,/!p!!>(!E/C/B,/!pp! G,F,!>)! |!p!!<(! A,/F,/E,/D,/ C,!pp!D, E,E,,!<)! | z4!p! ^G,>G, | %33
!mf! A,/C/B,/A,/ E/B,/C/D/ E,/D/C/B,/ | C/D/C/B,/ A,/ z/ z z2 | z6 | z6 | %37
 z2 z z/!p!!<(! A,/ ^G,/B,/A,/G,/!<)! |!mp! A,/E,/A,/C/ z4 | z6 | %40
 G,/!mp!(D,/G,/B,/ D/)G,/B,/D/ z2 | z4!mp!!<(! C/B,/A,/G,/!<)! | ^F,3/2 z/ z2 A,/ z A,/ | %43
!mf! E,/G,/^F,/E,/ B,/F,/G,/A,/ B,,/A,/G,/F,/ | %44
 G,/A,/G,/^F,/ E,/!mp!!>(!B,/^C/^D/!<(! E/=D/=C/B,/!>)!!<)! | %45
 C/B,/A,/B,/ C/B,/A,/G,/ ^F,/A,/G,/F,/ |!p!!<(! B,/A,/G,/A,/ B,/A,/G,/^F,/ E,/G,/F,/E,/!<)! | %47
!p!!<(! A,/G,/^F,/G,/ A,/G,/F,/E,/ ^D,/F,/E,/D,/!<)! | %48
 E,/!mp!!>(!(B,,/E,/G,/ B,/)!>(!(E,/G,/B,/)!p! E/D/C/B,/!>)!!>)! | %49
 A,2 z/!p!!>(! (A,/E,/C,/ A,,/)C,/E,/A,/!>)! |!pp! B,,A, ^F,A, E,A, | %51
!p!!<(! G,/A,/B,/A,/ G,/^F,/E,/D,/ A,/G,/F,/E,/!<)! |!p! C/B,/A,/G,/ ^F,/G,/A,/B,/ ^D,>D, |] %53
V:4
 z6 | z6 | z6 | z6 | z6 | z6 | z6 | z6 | z6 | z6 | z6 | z6 | z6 | z6 | z6 | z6 | z6 | z6 | z6 | %19
 z6 | z6 | z6 | z6 | z6 | z6 | z6 | z6 | z6 | z6 | z6 | z6 | z6 | %32
!mf! A,,/C,/B,,/A,,/ E,/B,,/C,/D,/ E,,/D,/C,/B,,/ |!p! C,2- C,/D,/E,/F,/ ^G,,>G,, | %34
 A,,2 z!p! E, C,E, |!p! D,F, B,,F, G,,F, |!p! C,E, A,,E, F,,E, |!pp! B,,D, ^G,,D, E,,D, | %38
 C,2 z2 C,2- | C,/!p!!>(!A,,/B,,/C,/!pp! D,,C, ^F,,C,!>)! | B,,2 z2 B,,2- | %41
 B,,/G,,/A,,/B,,/ C,,B,, E,,B,, | A,,/B,,/C,/B,,/!<(! A,,/G,,/^F,,/E,,/ ^D,,^D,!<)! | z6 | z6 | %45
 z6 | z6 | z6 | z6 | z6 | z6 | z4!pp!!<(! C,/B,,/A,,/G,,/!<)! | %52
!p! A,,/B,,/C,/B,,/ A,,/G,,/^F,,/E,,/ B,,/C,/B,,/A,,/ |] %53

